X:485
T:Humours of Glendart, The
T:East of Glendart
R:jig
Z:Transcribed by Dave Marshall
M:6/8
K:D
|:BAF AFE|~F3 DFA|BAF AFD|FEE EFA|
BAF AFE|~F3 DFA|dcB AFE|FDD D2A:|
|:def d2B|ABA AFA|def d2f|ede fdB|
def d2B|ABA ABc|dcB AFE|FDD D2A:|
